assets/ios/swift/Icons.xcassets/info.imageset/info.svg

<svg width="24" height="24" viewBox="0 0 24 24" fill="none" xmlns="http://www.w3.org/2000/svg">
<path d="M11.2875 7.2875C11.4792 7.09583 11.7167 7 12 7C12.2833 7 12.5208 7.09583 12.7125 7.2875C12.9042 7.47917 13 7.71667 13 8C13 8.28333 12.9042 8.52083 12.7125 8.7125C12.5208 8.90417 12.2833 9 12 9C11.7167 9 11.4792 8.90417 11.2875 8.7125C11.0958 8.52083 11 8.28333 11 8C11 7.71667 11.0958 7.47917 11.2875 7.2875Z" fill="black"/>
<path d="M11.2875 11.2875C11.4792 11.0958 11.7167 11 12 11C12.2833 11 12.5208 11.0958 12.7125 11.2875C12.9042 11.4792 13 11.7167 13 12V16C13 16.2833 12.9042 16.5208 12.7125 16.7125C12.5208 16.9042 12.2833 17 12 17C11.7167 17 11.4792 16.9042 11.2875 16.7125C11.0958 16.5208 11 16.2833 11 16V12C11 11.7167 11.0958 11.4792 11.2875 11.2875Z" fill="black"/>
<path fill-rule="evenodd" clip-rule="evenodd" d="M22 12C22 17.5228 17.5228 22 12 22C6.47715 22 2 17.5228 2 12C2 6.47715 6.47715 2 12 2C17.5228 2 22 6.47715 22 12ZM20 12C20 16.4183 16.4183 20 12 20C7.58172 20 4 16.4183 4 12C4 7.58172 7.58172 4 12 4C16.4183 4 20 7.58172 20 12Z" fill="black"/>
</svg>

<svg xmlns="http://www.w3.org/2000/svg" width="24" height="24" fill="black" viewBox="0 0 24 24">
  <path d="M11.287 7.287A.968.968 0 0 1 12 7c.283 0 .52.096.713.287.191.192.287.43.287.713s-.096.52-.287.713A.968.968 0 0 1 12 9a.968.968 0 0 1-.713-.287A.967.967 0 0 1 11 8c0-.283.096-.52.287-.713Zm0 4A.968.968 0 0 1 12 11c.283 0 .52.096.713.287.191.192.287.43.287.713v4a.97.97 0 0 1-.287.712A.968.968 0 0 1 12 17a.968.968 0 0 1-.713-.288A.968.968 0 0 1 11 16v-4c0-.283.096-.52.287-.713Z"/>
  <path fill-rule="evenodd" d="M22 12c0 5.523-4.477 10-10 10S2 17.523 2 12 6.477 2 12 2s10 4.477 10 10Zm-2 0a8 8 0 1 1-16 0 8 8 0 0 1 16 0Z" clip-rule="evenodd"/>
</svg>
